src/assets/svg/loupe-icon.svg

<svg width="20" height="20" viewBox="0 0 20 20" fill="none" xmlns="http://www.w3.org/2000/svg">
<path fill-rule="evenodd" clip-rule="evenodd" d="M2.99904 8.994C2.99904 5.688 5.68919 2.998 8.99713 2.998C12.3051 2.998 14.9952 5.688 14.9952 8.994C14.9952 12.3 12.3051 14.99 8.99713 14.99C5.68919 14.99 2.99904 12.3 2.99904 8.994ZM19.5588 17.44L16.3188 14.209C17.3695 12.737 17.9943 10.94 17.9943 8.994C17.9943 4.027 13.9665 0 8.99713 0C4.02872 0 0 4.027 0 8.994C0 13.961 4.02872 17.988 8.99713 17.988C10.9355 17.988 12.7269 17.369 14.1955 16.326L17.4414 19.562C17.7343 19.854 18.1172 20 18.5011 20C18.885 20 19.2689 19.853 19.5618 19.559C20.1476 18.973 20.1456 18.024 19.5588 17.44Z" fill="#3F4756"/>
</svg>

<svg width="20" height="20" fill="none" xmlns="http://www.w3.org/2000/svg">
  <path fill-rule="evenodd" clip-rule="evenodd"
    d="M2.999 8.994a6.004 6.004 0 015.998-5.996 6.004 6.004 0 015.998 5.996 6.004 6.004 0 01-5.998 5.996A6.004 6.004 0 013 8.994zm16.56 8.446l-3.24-3.231a8.944 8.944 0 001.675-5.215C17.994 4.027 13.967 0 8.997 0 4.03 0 0 4.027 0 8.994s4.029 8.994 8.997 8.994c1.938 0 3.73-.619 5.198-1.662l3.246 3.236a1.495 1.495 0 002.12-.003 1.496 1.496 0 00-.002-2.119z"
    fill="#3F4756" /></svg>
